assets/icons/qvision/markunread_mailbox.svg

<svg xmlns="http://www.w3.org/2000/svg" height="24" viewBox="0 0 24 24" width="24"><path d="M-618-3000H782V600H-618zM0 0h24v24H0z" fill="none"/><path d="M20 6H10v6H8V4h6V0H6v6H4c-1.1 0-2 .9-2 2v12c0 1.1.9 2 2 2h16c1.1 0 2-.9 2-2V8c0-1.1-.9-2-2-2z"/></svg>

<svg width="24" height="24" viewBox="0 0 24 24" fill="none" xmlns="http://www.w3.org/2000/svg">
<g clip-path="url(#clip0_147_4419)">
<path d="M20 6H10V12H8V4H14V0H6V6H4C2.9 6 2 6.9 2 8V20C2 21.1 2.9 22 4 22H20C21.1 22 22 21.1 22 20V8C22 6.9 21.1 6 20 6Z" fill="#323232"/>
</g>
<defs>
<clipPath id="clip0_147_4419">
<rect width="24" height="24" fill="white"/>
</clipPath>
</defs>
</svg>
